packages/storybook/src/stories/assets/discord.svg

<svg width="33" height="32" viewBox="0 0 33 32" fill="none" xmlns="http://www.w3.org/2000/svg">
<g clip-path="url(#clip0_10031_177575)">
<mask id="mask0_10031_177575" style="mask-type:luminance" maskUnits="userSpaceOnUse" x="0" y="4" width="33" height="25">
<path d="M32.5034 4.00195H0.503906V28.7758H32.5034V4.00195Z" fill="white"/>
</mask>
<g mask="url(#mask0_10031_177575)">
<path d="M27.5928 6.20817C25.5533 5.27289 23.3662 4.58382 21.0794 4.18916C21.0378 4.18154 20.9962 4.20057 20.9747 4.23864C20.6935 4.73863 20.3819 5.3909 20.1637 5.90358C17.7042 5.53558 15.2573 5.53558 12.8481 5.90358C12.6299 5.37951 12.307 4.73863 12.0245 4.23864C12.003 4.20184 11.9614 4.18281 11.9198 4.18916C9.63431 4.58255 7.44721 5.27163 5.40641 6.20817C5.38874 6.21578 5.3736 6.22848 5.36355 6.24497C1.21508 12.439 0.078646 18.4809 0.636144 24.4478C0.638667 24.477 0.655064 24.5049 0.677768 24.5227C3.41481 26.5315 6.06609 27.7511 8.66815 28.5594C8.70979 28.5721 8.75392 28.5569 8.78042 28.5226C9.39594 27.6826 9.94461 26.7968 10.4151 25.8653C10.4428 25.8107 10.4163 25.746 10.3596 25.7244C9.48927 25.3945 8.66058 24.9922 7.86343 24.5354C7.80038 24.4986 7.79533 24.4084 7.85333 24.3653C8.02108 24.2397 8.18888 24.109 8.34906 23.977C8.37804 23.9529 8.41842 23.9478 8.45249 23.963C13.6894 26.3526 19.359 26.3526 24.5341 23.963C24.5682 23.9465 24.6086 23.9516 24.6388 23.9757C24.799 24.1077 24.9668 24.2397 25.1358 24.3653C25.1938 24.4084 25.19 24.4986 25.127 24.5354C24.3298 25.0011 23.5011 25.3945 22.6296 25.7232C22.5728 25.7447 22.5476 25.8107 22.5754 25.8653C23.0559 26.7955 23.6046 27.6812 24.2087 28.5213C24.234 28.5569 24.2794 28.5721 24.321 28.5594C26.9357 27.7511 29.5869 26.5315 32.324 24.5227C32.348 24.5049 32.3631 24.4783 32.3656 24.4491C33.0328 17.5506 31.2481 11.5584 27.6344 6.24623C27.6256 6.22848 27.6105 6.21578 27.5928 6.20817ZM11.1971 20.8146C9.62043 20.8146 8.32129 19.3679 8.32129 17.5913C8.32129 15.8146 9.59523 14.368 11.1971 14.368C12.8115 14.368 14.0981 15.8273 14.0729 17.5913C14.0729 19.3679 12.7989 20.8146 11.1971 20.8146ZM21.8299 20.8146C20.2533 20.8146 18.9541 19.3679 18.9541 17.5913C18.9541 15.8146 20.228 14.368 21.8299 14.368C23.4444 14.368 24.7309 15.8273 24.7057 17.5913C24.7057 19.3679 23.4444 20.8146 21.8299 20.8146Z" fill="#5865F2"/>
</g>
</g>
<defs>
<clipPath id="clip0_10031_177575">
<rect width="31.9995" height="32" fill="white" transform="translate(0.5)"/>
</clipPath>
</defs>
</svg>

<svg xmlns="http://www.w3.org/2000/svg" width="33" height="32" fill="none">
  <g clip-path="url(#a)">
    <mask id="b" width="33" height="25" x="0" y="4" maskUnits="userSpaceOnUse" style="mask-type:luminance">
      <path fill="#fff" d="M32.503 4.002h-32v24.774h32z"/>
    </mask>
    <g mask="url(#b)">
      <path fill="#5865F2" d="M27.593 6.208a26.4 26.4 0 0 0-6.514-2.019.1.1 0 0 0-.104.05c-.282.5-.593 1.152-.811 1.665a24.4 24.4 0 0 0-7.316 0 17 17 0 0 0-.824-1.665.1.1 0 0 0-.104-.05 26.3 26.3 0 0 0-6.514 2.02.1.1 0 0 0-.042.036C1.215 12.439.079 18.481.636 24.448a.1.1 0 0 0 .042.075 26.5 26.5 0 0 0 7.99 4.036.1.1 0 0 0 .112-.036 19 19 0 0 0 1.635-2.658.1.1 0 0 0-.055-.14c-.87-.33-1.7-.733-2.497-1.19a.103.103 0 0 1-.01-.17c.168-.125.336-.256.496-.388a.1.1 0 0 1 .103-.014c5.237 2.39 10.907 2.39 16.082 0a.1.1 0 0 1 .105.013q.242.2.497.39a.103.103 0 0 1-.009.17 16.4 16.4 0 0 1-2.497 1.187.102.102 0 0 0-.055.142c.48.93 1.03 1.816 1.634 2.656a.1.1 0 0 0 .112.038 26.5 26.5 0 0 0 8.003-4.036.1.1 0 0 0 .042-.074c.667-6.898-1.118-12.89-4.732-18.203a.1.1 0 0 0-.041-.038M11.197 20.815c-1.577 0-2.876-1.447-2.876-3.224 0-1.776 1.274-3.223 2.876-3.223 1.615 0 2.901 1.46 2.876 3.223 0 1.777-1.274 3.224-2.876 3.224m10.633 0c-1.577 0-2.876-1.447-2.876-3.224 0-1.776 1.274-3.223 2.876-3.223 1.614 0 2.9 1.46 2.876 3.223 0 1.777-1.262 3.224-2.876 3.224"/>
    </g>
  </g>
  <defs>
    <clipPath id="a">
      <path fill="#fff" d="M.5 0h32v32H.5z"/>
    </clipPath>
  </defs>
</svg>
